flaticon/outdoor/slingshot.svg

<svg xmlns="http://www.w3.org/2000/svg" width="32" height="32" viewBox="0 0 24 24">
    <path d="M 22.898438 5.441406 C 22.03125 4.285156 20.964844 3.320312 19.710938 2.566406 C 15.367188 0.164062 10.304688 -0.585938 5.449219 0.460938 L 4.046875 0.761719 L 3.527344 0.246094 C 3.203125 -0.078125 2.675781 -0.078125 2.351562 0.246094 L 0.417969 2.179688 C 0.257812 2.335938 0.171875 2.546875 0.171875 2.765625 C 0.171875 2.988281 0.257812 3.199219 0.414062 3.355469 L 0.730469 3.671875 C 0.171875 5.628906 0.710938 7.710938 2.160156 9.160156 C 3.207031 10.210938 4.636719 10.757812 6.1875 10.695312 C 7.519531 10.640625 8.824219 10.128906 9.839844 9.265625 L 11.453125 11.160156 C 12.65625 12.570312 13.316406 14.367188 13.316406 16.222656 L 13.316406 22.90625 C 13.316406 23.511719 13.808594 24 14.410156 24 L 15.425781 24 C 16.027344 24 16.519531 23.511719 16.519531 22.90625 L 16.519531 16.25 C 16.519531 14.378906 17.191406 12.566406 18.410156 11.152344 L 19.652344 9.710938 L 20.046875 10.101562 C 20.203125 10.25 20.378906 10.378906 20.574219 10.476562 L 20.789062 10.582031 C 21.367188 10.875 22.035156 10.875 22.617188 10.589844 C 23.203125 10.304688 23.609375 9.777344 23.738281 9.140625 C 23.996094 7.847656 23.691406 6.496094 22.898438 5.441406 Z M 0.980469 2.746094 L 2.914062 0.808594 C 2.921875 0.804688 2.929688 0.800781 2.9375 0.800781 C 2.945312 0.800781 2.957031 0.804688 2.960938 0.808594 L 4.347656 2.230469 C 3.332031 2.328125 2.539062 3.183594 2.539062 4.222656 C 2.539062 4.265625 2.539062 4.308594 2.542969 4.351562 L 0.980469 2.789062 C 0.972656 2.78125 0.972656 2.753906 0.980469 2.746094 Z M 4.539062 3.023438 C 4.621094 3.023438 4.707031 3.03125 4.796875 3.050781 C 4.808594 3.054688 4.820312 3.054688 4.832031 3.058594 C 5.351562 3.1875 5.738281 3.660156 5.738281 4.222656 C 5.738281 4.882812 5.199219 5.421875 4.539062 5.421875 C 3.988281 5.421875 3.519531 5.046875 3.382812 4.539062 C 3.378906 4.523438 3.375 4.507812 3.371094 4.492188 C 3.347656 4.394531 3.339844 4.304688 3.339844 4.222656 C 3.339844 3.558594 3.875 3.023438 4.539062 3.023438 Z M 9.546875 7.691406 C 9.238281 7.382812 9.242188 6.878906 9.550781 6.566406 C 9.703125 6.414062 9.90625 6.332031 10.117188 6.332031 C 10.328125 6.332031 10.519531 6.410156 10.671875 6.550781 L 11.046875 7.023438 L 9.886719 8.089844 Z M 15.71875 22.90625 C 15.71875 23.070312 15.585938 23.199219 15.425781 23.199219 L 14.410156 23.199219 C 14.25 23.199219 14.117188 23.070312 14.117188 22.90625 L 14.117188 21.414062 L 15.71875 20.347656 Z M 15.71875 19.386719 L 14.117188 20.453125 L 14.117188 18.613281 L 15.71875 17.546875 Z M 17.804688 10.628906 C 16.460938 12.191406 15.71875 14.1875 15.71875 16.25 L 15.71875 16.585938 L 14.117188 17.652344 L 14.117188 16.222656 C 14.117188 14.179688 13.386719 12.195312 12.0625 10.640625 L 10.40625 8.699219 L 11.550781 7.648438 L 14.070312 10.785156 C 14.277344 11.042969 14.585938 11.191406 14.917969 11.191406 C 14.917969 11.191406 14.921875 11.191406 14.921875 11.191406 C 15.25 11.191406 15.558594 11.046875 15.765625 10.789062 L 17.984375 8.066406 L 19.082031 9.148438 Z M 19.605469 8.539062 L 18.492188 7.441406 L 19.214844 6.554688 C 19.519531 6.261719 20.035156 6.269531 20.332031 6.566406 C 20.644531 6.878906 20.644531 7.386719 20.3125 7.71875 Z M 22.953125 8.984375 C 22.875 9.375 22.625 9.699219 22.269531 9.871094 C 21.910156 10.046875 21.503906 10.046875 21.148438 9.867188 L 20.933594 9.761719 C 20.8125 9.699219 20.703125 9.621094 20.609375 9.53125 L 20.175781 9.101562 L 20.898438 8.261719 C 21.523438 7.640625 21.523438 6.625 20.898438 6 C 20.292969 5.394531 19.238281 5.398438 18.636719 6 C 18.625 6.007812 18.617188 6.019531 18.609375 6.03125 L 15.148438 10.285156 C 15.070312 10.378906 14.972656 10.390625 14.921875 10.390625 C 14.867188 10.390625 14.769531 10.378906 14.695312 10.285156 L 11.914062 6.824219 C 11.910156 6.816406 11.90625 6.808594 11.898438 6.804688 L 11.28125 6.03125 C 11.269531 6.023438 11.261719 6.011719 11.25 6 C 10.644531 5.398438 9.59375 5.394531 8.988281 6 C 8.363281 6.625 8.363281 7.636719 8.960938 8.234375 L 9.320312 8.65625 C 8.441406 9.402344 7.308594 9.851562 6.15625 9.894531 C 4.832031 9.945312 3.613281 9.484375 2.726562 8.59375 C 1.59375 7.460938 1.109375 5.878906 1.394531 4.335938 L 2.007812 4.949219 C 2.21875 5.15625 2.507812 5.234375 2.78125 5.171875 C 3.117188 5.796875 3.78125 6.222656 4.539062 6.222656 C 5.640625 6.222656 6.539062 5.324219 6.539062 4.222656 C 6.539062 3.410156 6.054688 2.710938 5.359375 2.398438 C 5.351562 2.191406 5.273438 1.992188 5.121094 1.839844 L 4.71875 1.4375 L 5.621094 1.242188 C 10.28125 0.238281 15.148438 0.957031 19.3125 3.261719 C 20.460938 3.953125 21.453125 4.847656 22.257812 5.921875 C 22.914062 6.796875 23.167969 7.910156 22.953125 8.984375 Z M 22.953125 8.984375"/>
    <path d="M 9.144531 20.011719 C 9.257812 19.765625 9.320312 19.488281 9.320312 19.199219 C 9.320312 18.175781 8.542969 17.324219 7.546875 17.214844 C 7.65625 16.964844 7.71875 16.6875 7.71875 16.398438 C 7.71875 15.296875 6.820312 14.398438 5.71875 14.398438 C 4.617188 14.398438 3.71875 15.296875 3.71875 16.398438 C 3.71875 16.6875 3.78125 16.964844 3.890625 17.214844 C 2.894531 17.324219 2.117188 18.175781 2.117188 19.199219 C 2.117188 19.488281 2.179688 19.765625 2.292969 20.011719 C 1.296875 20.125 0.519531 20.972656 0.519531 22 C 0.519531 23.101562 1.414062 24 2.519531 24 C 3.171875 24 3.753906 23.683594 4.117188 23.199219 C 4.484375 23.683594 5.066406 24 5.71875 24 C 6.371094 24 6.953125 23.683594 7.320312 23.199219 C 7.683594 23.683594 8.265625 24 8.917969 24 C 10.019531 24 10.917969 23.101562 10.917969 22 C 10.917969 20.972656 10.140625 20.125 9.144531 20.011719 Z M 5.71875 15.199219 C 6.378906 15.199219 6.917969 15.738281 6.917969 16.398438 C 6.917969 17.0625 6.378906 17.601562 5.71875 17.601562 C 5.058594 17.601562 4.519531 17.0625 4.519531 16.398438 C 4.519531 15.738281 5.058594 15.199219 5.71875 15.199219 Z M 2.519531 23.199219 C 1.855469 23.199219 1.320312 22.660156 1.320312 22 C 1.320312 21.339844 1.855469 20.800781 2.519531 20.800781 C 3.179688 20.800781 3.71875 21.339844 3.71875 22 C 3.71875 22.660156 3.179688 23.199219 2.519531 23.199219 Z M 4.117188 20.398438 C 3.457031 20.398438 2.917969 19.863281 2.917969 19.199219 C 2.917969 18.539062 3.457031 18 4.117188 18 C 4.78125 18 5.316406 18.539062 5.316406 19.199219 C 5.316406 19.863281 4.78125 20.398438 4.117188 20.398438 Z M 5.71875 23.199219 C 5.058594 23.199219 4.519531 22.660156 4.519531 22 C 4.519531 21.339844 5.058594 20.800781 5.71875 20.800781 C 6.378906 20.800781 6.917969 21.339844 6.917969 22 C 6.917969 22.660156 6.378906 23.199219 5.71875 23.199219 Z M 7.316406 20.398438 C 6.65625 20.398438 6.117188 19.863281 6.117188 19.199219 C 6.117188 18.539062 6.65625 18 7.316406 18 C 7.980469 18 8.519531 18.539062 8.519531 19.199219 C 8.519531 19.863281 7.980469 20.398438 7.316406 20.398438 Z M 8.917969 23.199219 C 8.257812 23.199219 7.71875 22.660156 7.71875 22 C 7.71875 21.339844 8.257812 20.800781 8.917969 20.800781 C 9.578125 20.800781 10.117188 21.339844 10.117188 22 C 10.117188 22.660156 9.582031 23.199219 8.917969 23.199219 Z M 8.917969 23.199219"/>
</svg>

<svg xmlns="http://www.w3.org/2000/svg" width="32" height="32" viewBox="0 0 24 24">
    <path d="M22.898 5.441a11.116 11.116 0 0 0-3.187-2.875A20.521 20.521 0 0 0 5.449.461l-1.402.3-.52-.515a.832.832 0 0 0-1.175 0L.418 2.18a.83.83 0 0 0-.004 1.176l.316.316A5.565 5.565 0 0 0 2.16 9.16c1.047 1.05 2.477 1.598 4.027 1.535a6.068 6.068 0 0 0 3.653-1.43l1.613 1.895a7.802 7.802 0 0 1 1.863 5.063v6.683c0 .606.493 1.094 1.094 1.094h1.016c.601 0 1.094-.488 1.094-1.094V16.25c0-1.871.671-3.684 1.89-5.098l1.242-1.441.395.39c.156.149.332.278.527.376l.215.105a2.035 2.035 0 0 0 1.828.008 2.049 2.049 0 0 0 1.121-1.45 4.654 4.654 0 0 0-.84-3.699zM.98 2.746L2.914.81C2.922.805 2.93.8 2.937.8c.008 0 .02.004.024.008L4.348 2.23a2.002 2.002 0 0 0-1.805 2.122L.98 2.789c-.007-.008-.007-.035 0-.043zm3.56.277c.081 0 .167.008.257.028.012.004.023.004.035.008a1.2 1.2 0 1 1-1.45 1.48l-.01-.047A1.197 1.197 0 0 1 4.54 3.023zm5.007 4.668a.8.8 0 0 1 .57-1.359c.211 0 .403.078.555.219l.375.472-1.16 1.067zm6.172 15.215a.293.293 0 0 1-.293.293H14.41a.293.293 0 0 1-.293-.293v-1.492l1.602-1.066zm0-3.52l-1.602 1.067v-1.84l1.602-1.066zm2.086-8.757a8.626 8.626 0 0 0-2.086 5.621v.336l-1.602 1.066v-1.43a8.62 8.62 0 0 0-2.055-5.581l-1.656-1.942 1.145-1.05 2.52 3.136c.206.258.515.406.847.406h.004c.328 0 .637-.144.844-.402l2.218-2.723 1.098 1.082zm1.8-2.09l-1.113-1.098.723-.886a.816.816 0 0 1 1.117.011c.313.313.313.82-.02 1.153zm3.348.445a1.25 1.25 0 0 1-.683.887c-.36.176-.766.176-1.122-.004l-.214-.105a1.39 1.39 0 0 1-.325-.23l-.433-.43.722-.84a1.598 1.598 0 0 0 0-2.262c-.605-.605-1.66-.602-2.261 0-.012.008-.02.02-.028.031l-3.46 4.254a.288.288 0 0 1-.227.106.278.278 0 0 1-.227-.106l-2.78-3.46c-.005-.009-.009-.016-.017-.02l-.617-.774c-.011-.008-.02-.02-.031-.031-.605-.602-1.656-.605-2.262 0-.625.625-.625 1.637-.027 2.234l.36.422a5.242 5.242 0 0 1-3.165 1.239c-1.324.05-2.543-.41-3.43-1.301a4.772 4.772 0 0 1-1.331-4.258l.613.613c.21.207.5.285.773.223a1.998 1.998 0 0 0 3.758-.95 2 2 0 0 0-1.18-1.824.825.825 0 0 0-.238-.558l-.402-.403.902-.195a19.71 19.71 0 0 1 13.692 2.02 10.301 10.301 0 0 1 2.945 2.66c.656.875.91 1.988.695 3.062zm0 0"/>
    <path d="M9.145 20.012c.113-.246.175-.524.175-.813a2 2 0 0 0-1.773-1.984 2.004 2.004 0 0 0-1.828-2.816 2.004 2.004 0 0 0-1.828 2.816 2 2 0 0 0-1.774 1.984c0 .29.063.567.176.813A2.001 2.001 0 0 0 2.52 24c.652 0 1.234-.316 1.597-.8.367.484.95.8 1.602.8a2.01 2.01 0 0 0 1.601-.8 1.997 1.997 0 0 0 3.598-1.2 2.004 2.004 0 0 0-1.773-1.988zm-3.426-4.813a1.202 1.202 0 0 1 0 2.403 1.202 1.202 0 0 1 0-2.402zm-3.2 8A1.2 1.2 0 1 1 2.52 20.8a1.2 1.2 0 0 1 0 2.4zm1.598-2.8a1.2 1.2 0 1 1 0-2.4 1.2 1.2 0 0 1 0 2.4zm1.602 2.8c-.66 0-1.2-.539-1.2-1.199s.54-1.2 1.2-1.2c.66 0 1.199.54 1.199 1.2 0 .66-.54 1.2-1.2 1.2zm1.597-2.8a1.2 1.2 0 0 1 0-2.399c.664 0 1.204.54 1.204 1.2a1.2 1.2 0 0 1-1.204 1.198zm1.602 2.8c-.66 0-1.2-.539-1.2-1.199s.54-1.2 1.2-1.2a1.2 1.2 0 1 1 0 2.398zm0 0"/>
</svg>
